X:300
T: DER JAEGER IN DEM GRUENEN WALD
N: E1450
O: Europa, Mitteleuropa, Deutschland
R: Staende -, Jaeger - Lied, Liebe
M: 2/4
L: 1/16
K: Bb
F2 | B3AG2F2 | G3FE2
D2 | F2F2G2A2 | B3dc3A | B4z2
B2 | A2c2c2A2 | B2d2d2
B2 | A2c2c2A2 | B2d2d2
F2 | B3AG2F2 | G3FE2
D2 | F2F2G2A2 | B3dc3A | B4z2

@@@ Tune index: 4984
